X:112
T:Ninepins
Z:Jack Campin, http://www.campin.me.uk/
F:Jack Campin's Nine-Note Tunebook
% last edit 07-03-2013
N:pause at random in the B part for a musical-chairs moment
M:2/4
L:1/16
Q:1/4=112
K:G
D2DE D2DE|D2G2 G2F2|E2EF E2EF|E2A2 E2F2|
D2DE D2DE|D2G2 G2F2|E2A2 E2F2|G4   G4 :|
B4   B4  |B2E2 E4  |E2EF E2EF|G2D2 D4  |
B4   B4  |B2E2 E4  |E2EF E2EF|G4   G4 :|

